X:1
T:James Gibb editions
T:Laetatus sum - Vivaldi
T:#
%%score [ 1 2 3 4 ]
L:1/8
Q:1/4=108
M:3/4
K:F
V:1 treble nm="Soprano" snm="S"
V:2 treble nm="Alto" snm="A"
V:3 treble-8 nm="Tenor" snm="T"
V:4 bass nm="Bass" snm="B"
V:1
"^Laetatus sum, RV 607""^Antonio Vivaldi\n(1678-1741)""^Psalm 121(Vulgate)" c2 c2 c2 | d2 d4 | %2
w: Lae- ta- tus|sum in|
 c4 c2 | d2 c2 d2 | B6 | A6 | d2 d2 d2 | d2 (c=B) c2 | c4 =B2 |[M:3/4] c4 z2 | c4 A2 | z2 A2 A2 | %12
w: his quae|di- cta sunt|mi-|hi:|In do- mum|Do- mi\- * ni|i- bi-|mus.|Stan- tes,|stan- tes|
 d4 d2 | (d2 e2) d2 | ^c4 A2 | f2 f2 ff | e2 e2 d2- | d2 d2 ^c2 | d6 | z4 e2 | c3 =B A2 | %21
w: e- rant|pe\- * des|no- stri,|in a- tri- is|tu- is Je\-|* ru- sa-|lem.|Je-|ru- sa- lem,|
 =B3 B BB | c2 c2 c2 | c3 =B B2 | d2 dd dd | d3 d d2 | c3 c !courtesy!=c2 | =B2 B4 | c6 | z6 | %30
w: quae ae- di- fi-|ca- tur ut|ci- vi- tas:|cu- jus par- ti- ci-|pa- ti- o|e- jus in|id- i-|psum.||
 z2 c2 c2 | c2 c2 cc | d2 d4 | d2 c4 | (d2 c2) d2 | B4 B2 | A6 | cc c2 cc | d3 d d2 | d2 d2 d2 | %40
w: Il- luc|e- nim a- scen-|de- runt|tri- bus,|tri\- * bus|Do- mi-|ni:|te- sti- mo- ni- um|Is- ra- el|ad con- fi-|
 d2 (c=B) c2 | cc c2 =B2 | c6 | c4 A2 | A2 A2 A2 | d4 d2 | d3 d ed | ^c3 =B A2 | f3 f ff | e4 d2- | %50
w: ten- dum * no-|mi- ni Do- mi-|ni.|Qui- a|il- lic se-|de- runt|se- des in ju-|di- ci- o,|se- des su- per|do- mum|
 d2 (d2 ^c2) | d6 | z4 e2 | (c2 =B2) A2 | =B4 B2 | c3 c cc | c3 =B B2 | d2 d2 d2 | d3 d d2 | %59
w: * Da\- *|vid.|Ro-|ga\- * te|quae ad|pa- cem sunt Je-|ru- sa- lem:|et a- bun-|dan- ti- a|
 c4 c2 | =B3 B B2 | c6 | z6 | c4 c2 | d2 d2 d2 | c2 c2 cc | (d2 c2) d2 | B6 | A4 z2 | c2 c2 c2 | %70
w: di- li-|gen- ti- bus|te.||Fi- at|pax in vir-|tu- te, in vir-|tu\- * te|tu-|a:|et a- bun-|
 dd d2 d2 | (d2 c=B) c2 | c2 (c2 =B2) | c6 | c3 c AA | d2 d2 d2 | d2 e2 d2 | ^c4 A2 | f2 f2 f2 | %79
w: dan- ti- a in|tur\- * * ri-|bus tu\- *|is.|Pro- pter fra- tres|me- os et|pro- xi- mos|me- os,|lo- que- bar|
 e2 e2 d2- | d2 d2 ^c2 | d6 | e3 e ee | c3 =B A2 | =B2 BB BB | c6 | =B6 | d2 d2 d2 | d4 c2- | %89
w: pa- cem, pa\-|* cem de|te:|Pro- pter do- mum|Do- mi- ni,|Do- mi- ni De- i|no-|stri,|quae- si- vi|bo- na|
 c2 =B4 | c6 | z6 | c3 c c2 | d4 d2 | c3 c c2 | d2 c2 d2 | B2 B3 B | A6 | d4 d2 | (d2 c=B) c2 | %100
w: * ti-|bi.||Glo- ri- a|Pa- tri,|glo- ri- a,|glo- ri- a|et Fi- li-|o,|et Spi-|ri\- * * tu-|
 c2 =B4 | c6 | z2 c2 c2 | d4 d2 | d4 d2 | ^c3 =B A2 | f2 f2 f2 | e2 e2 d2 | d2 d2 ^c2 | d6 | %110
w: i San-|cto.|Si- cut|e- rat|in prin-|ci- pi- o,|et nunc, et|sem- per, et|in sae- cu-|la,|
 z2 e2 e2 | !courtesy!=c=B A2 A2 | =B2 BB BB | c2 c2 c2 | d2 dd dd | d4 c2- | c2 =B4 | A6 | %118
w: et in|sae- cu- la, in|sae- cu- la sae- cu-|lo- rum, in|sae- cu- la sae- cu-|lo- rum|* a-|men,|
 z2 c2 c2 | d2 dd dd | c2 c2 c2 | d2 dd dd | c4 c2- | c2 c4 | c6 | z2 c2 c2 | d2 dd dd | c2 c2 c2 | %128
w: et in|sae- cu- la sae- cu-|lo- rum, in|sae- cu- la sae- cu-|lo- rum|* a-|men,|et in|sae- cu- la sae- cu-|lo- rum, in|
 d2 dd dd |[Q:1/4=106] c4[Q:1/4=104] c2- |[Q:1/4=103] c2[Q:1/4=101] c4 |[Q:1/4=97] c6 | %132
w: sae- cu- la sae- cu-|lo- rum|* a-|men,|
[Q:1/4=94] c4[Q:1/4=92] c2 |[Q:1/4=92] c4[Q:1/4=50] !fermata!c2 |] %134
w: a- men,|a- men.|
V:2
 A2 A2 A2 | B2 B4 | A4 A2 | B2 A2 B2 | G6 | F6 | F2 F2 F2 | G3 G G2 | G4 G2 |[M:3/4] G4 z2 | %10
w: Lae- ta- tus|sum in|his quae|di- cta sunt|mi-|hi:|In do- mum|Do- mi- ni|i- bi-|mus.|
 A4 F2 | z2 F2 F2 | A4 A2 | B4 B2 | A4 A2 | A2 A2 AA | A2 A2 A2- | A2 A2 A2 | A6 | z4 =B2 | %20
w: Stan- tes,|stan- tes|e- rant|pe- des|no- stri,|in a- tri- is|tu- is Je\-|* ru- sa-|lem.|Je-|
 A3 A A2 | ^G3 G GG | A2 A2 A2 | A3 ^G G2 | ^G2 GG GG | ^G3 G G2 | A3 A A2 | A2 (A2 ^G2) | A6 | %29
w: ru- sa- lem,|quae ae- di- fi-|ca- tur ut|ci- vi- tas:|cu- jus par- ti- ci-|pa- ti- o|e- jus in|id- i\- *|psum.|
 z6 | z2 A2 A2 | A2 A2 AA | B2 B4 | B2 A4 | (B2 A2) B2 | G4 G2 | F6 | FF F2 FF | F3 F F2 | %39
w: |Il- luc|e- nim a- scen-|de- runt|tri- bus,|tri\- * bus|Do- mi-|ni:|te- sti- mo- ni- um|Is- ra- el|
 F2 F2 F2 | G2 G2 G2 | GG G2 G2 | G6 | A4 F2 | F2 F2 F2 | A4 A2 | B3 B BB | A3 A A2 | A3 A AA | %49
w: ad con- fi-|ten- dum no-|mi- ni Do- mi-|ni.|Qui- a|il- lic se-|de- runt|se- des in ju-|di- ci- o,|se- des su- per|
 A4 A2- | A2 A4 | A6 | z4 =B2 | A4 A2 | ^G4 G2 | A3 A AA | A3 ^G G2 | ^G2 G2 G2 | ^G3 G G2 | %59
w: do- mum|* Da-|vid.|Ro-|ga- te|quae ad|pa- cem sunt Je-|ru- sa- lem:|et a- bun-|dan- ti- a|
 A4 A2 | A3 A ^G2 | A6 | z6 | A4 A2 | B2 B2 B2 | A2 A2 AA | (B2 A2) B2 | G6 | F6 | F2 F2 F2 | %70
w: di- li-|gen- ti- bus|te.||Fi- at|pax in vir-|tu- te, in vir-|tu\- * te|tu-|a:|et a- bun-|
 FF F2 F2 | G4 G2 | G2 G4 | G6 | A3 A FF | F2 F2 A2 | B2 B2 B2 | A4 A2 | A2 A2 A2 | A2 A2 A2- | %80
w: dan- ti- a in|tur- ri-|bus tu-|is.|Pro- pter fra- tres|me- os et|pro- xi- mos|me- os,|lo- que- bar|pa- cem, pa\-|
 A2 A2 A2 | A6 | =B3 B BB | A3 A A2 | ^G2 GG GG | A6 | ^G6 | ^G2 G2 G2 | ^G4 A2- | A2 ^G4 | A6 | %91
w: * cem de|te:|Pro- pter do- mum|Do- mi- ni,|Do- mi- ni De- i|no-|stri,|quae- si- vi|bo- na|* ti-|bi.|
 z6 | A3 A A2 | B4 B2 | A3 A A2 | B2 A2 B2 | G2 G3 G | F6 | F4 F2 | G4 G2 | G2 G4 | G6 | z2 F2 F2 | %103
w: |Glo- ri- a|Pa- tri,|glo- ri- a,|glo- ri- a|et Fi- li-|o,|et Spi-|ri- tu-|i San-|cto.|Si- cut|
 A4 A2 | B4 B2 | A3 A A2 | A2 A2 A2 | A2 A2 A2 | A2 A2 A2 | A6 | z2 =B2 B2 | AA A2 A2 | ^G2 GG GG | %113
w: e- rat|in prin-|ci- pi- o,|et nunc, et|sem- per, et|in sae- cu-|la,|et in|sae- cu- la, in|sae- cu- la sae- cu-|
 A2 A2 A2 | ^G2 GG GG | ^G4 A2- | A2 ^G4 | A6 | z2 A2 A2 | B2 BB BB | A2 A2 A2 | B2 BB BB | %122
w: lo- rum, in|sae- cu- la sae- cu-|lo- rum|* a-|men,|et in|sae- cu- la sae- cu-|lo- rum, in|sae- cu- la sae- cu-|
 A4 A2- | A2 G4 | A6 | z2 A2 A2 | B2 BB BB | A2 A2 A2 | B2 BB BB | A4 A2- | A2 G4 | A6 | G4 A2 | %133
w: lo- rum|* a-|men,|et in|sae- cu- la sae- cu-|lo- rum, in|sae- cu- la sae- cu-|lo- rum|* a-|men,|a- men,|
 G4 !fermata!A2 |] %134
w: a- men.|
V:3
 c2 c2 c2 | B2 B4 | c4 c2 | f2 f2 f2 | e6 | c6 | A2 A2 A2 | =B3 B e2 | d4 d2 | %9
w: Lae- ta- tus|sum in|his quae|di- cta sunt|mi-|hi:|In do- mum|Do- mi- ni|i- bi-|
[M:3/4][K:treble-8] e4 z2 | f4 c2 | z2 c2 c2 | A4 f2 | f4 f2 | e4 e2 | d2 d2 dd | ^c2 c2 f2- | %17
w: mus.|Stan- tes,|stan- tes|e- rant|pe- des|no- stri,|in a- tri- is|tu- is Je\-|
 f2 e2 e2 | f6 | z4 e2 | e3 e e2 | e3 e ee | c2 c2 c2 | e3 e e2 | =B2 BB BB | =B3 e e2 | e3 e e2 | %27
w: * ru- sa-|lem.|Je-|ru- sa- lem,|quae ae- di- fi-|ca- tur ut|ci- vi- tas:|cu- jus par- ti- ci-|pa- ti- o|e- jus in|
 f2 (=B2 e2) | e6 | z6 | z2 c2 c2 | c2 c2 cc | f2 f4 | f2 f4 | f4 f2 | e4 e2 | c6 | AA A2 AA | %38
w: id- i\- *|psum.||Il- luc|e- nim a- scen-|de- runt|tri- bus,|tri- bus|Do- mi-|ni:|te- sti- mo- ni- um|
 A3 A A2 | A2 A2 A2 | =B2 B2 e2 | dd d2 d2 | e6 | f4 c2 | c2 c2 c2 | A4 f2 | f3 f ff | e3 e e2 | %48
w: Is- ra- el|ad con- fi-|ten- dum no-|mi- ni Do- mi-|ni.|Qui- a|il- lic se-|de- runt|se- des in ju-|di- ci- o,|
 d3 d dd | ^c4 f2- | f2 e4 | f6 | z4 e2 | e4 e2 | e4 e2 | c3 c cc | e3 e e2 | =B2 B2 B2 | %58
w: se- des su- per|do- mum|* Da-|vid.|Ro-|ga- te|quae ad|pa- cem sunt Je-|ru- sa- lem:|et a- bun-|
 =B3 e e2 | e4 e2 | f2 =B2 e2 | e6 | z6 | c4 c2 | f2 f2 f2 | f2 f2 ff | f4 f2 | e6 | c6 | %69
w: dan- ti- a|di- li-|gen- ti- bus|te.||Fi- at|pax in vir-|tu- te, in vir-|tu- te|tu-|a:|
 A2 A2 A2 | AA A2 A2 | =B4 e2 | d2 d4 | e6 | f3 f cc | A2 A2 f2 | f2 f2 f2 | e4 e2 | d2 d2 d2 | %79
w: et a- bun-|dan- ti- a in|tur- ri-|bus tu-|is.|Pro- pter fra- tres|me- os et|pro- xi- mos|me- os,|lo- que- bar|
 ^c2 c2 f2- | f2 e2 e2 | f6 | e3 e ee | e3 e e2 | e2 ee ee | c6 | e6 | =B2 B2 B2 | e4 e2- | e2 e4 | %90
w: pa- cem, pa\-|* cem de|te:|Pro- pter do- mum|Do- mi- ni,|Do- mi- ni De- i|no-|stri,|quae- si- vi|bo- na|* ti-|
 e6 | z6 | c3 c c2 | B4 B2 | c3 c c2 | f2 f2 f2 | e2 e3 e | c6 | A4 A2 | =B4 e2 | d2 d4 | e6 | %102
w: bi.||Glo- ri- a|Pa- tri,|glo- ri- a,|glo- ri- a|et Fi- li-|o,|et Spi-|ri- tu-|i San-|cto.|
 z2 c2 c2 | A4 f2 | f4 f2 | e3 e e2 | d2 d2 d2 | ^c2 c2 f2 | f2 e2 e2 | f6 | z2 e2 e2 | ee e2 e2 | %112
w: Si- cut|e- rat|in prin-|ci- pi- o,|et nunc, et|sem- per, et|in sae- cu-|la,|et in|sae- cu- la, in|
 e2 ee ee | c2 c2 c2 | =B2 BB BB | =B4 (e2 | f2 (=B2 e2) | e6 | z2 c2 c2 | B2 BB BB | c2 c2 c2 | %121
w: sae- cu- la sae- cu-|lo- rum, in|sae- cu- la sae- cu-|lo- rum,|* a\- *|men,|et in|sae- cu- la sae- cu-|lo- rum, in|
 B2 BB BB | c2 f2 f2- | f2 e4 | f6 | z2 c2 c2 | B2 BB BB | c2 c2 c2 | B2 BB BB | c2 f2) f2- | %130
w: sae- cu- la sae- cu-|lo- * rum|* a-|men,|et in|sae- cu- la sae- cu-|lo- rum, in|sae- cu- la sae- cu-|lo\- * rum|
 f2 e4 | f6 | e4 f2 | e4 !fermata!f2 |] %134
w: * a-|men,|a- men,|a- men.|
V:4
 F,2 F,2 F,2 | F,2 F,4 | F,4 F,2 | F,2 F,2 F,2 | (G,2 C,4) | F,6 | F,2 F,2 F,2 | F,3 F, C,2 | %8
w: Lae- ta- tus|sum in|his quae|di- cta sunt|mi\- *|hi:|In do- mum|Do- mi- ni|
 G,4 G,,2 |[M:3/4] C,4"^James Gibb editions" z2 | F,4 F,2 | z2 F,2 F,2 | F,4 F,2 | G,4 G,2 | %14
w: i- bi-|mus.|Stan- tes,|stan- tes|e- rant|pe- des|
 A,4 A,2 | D,2 D,2 D,D, | A,2 A,2 D,2- | D,2 A,2 A,,2 | D,6 | z4 ^G,2 | A,3 A, A,2 | E,3 E, E,E, | %22
w: no- stri,|in a- tri- is|tu- is Je\-|* ru- sa-|lem.|Je-|ru- sa- lem,|quae ae- di- fi-|
 E,2 E,2 E,2 | E,3 E, E,2 | E,2 E,E, E,E, | E,3 E, E,2 | A,3 A, A,2 | D,2 E,4 | A,,6 | z6 | %30
w: ca- tur ut|ci- vi- tas:|cu- jus par- ti- ci-|pa- ti- o|e- jus in|id- i-|psum.||
 z2 F,2 F,2 | F,2 F,2 F,F, | F,2 F,4 | F,2 F,4 | F,4 F,2 | G,2 C,4 | F,6 | F,F, F,2 F,F, | %38
w: Il- luc|e- nim a- scen-|de- runt|tri- bus,|tri- bus|Do- mi-|ni:|te- sti- mo- ni- um|
 F,3 F, F,2 | F,2 F,2 F,2 | F,2 F,2 C,2 | G,G, G,2 G,,2 | C,6 | F,4 F,2 | F,2 F,2 F,2 | F,4 F,2 | %46
w: Is- ra- el|ad con- fi-|ten- dum no-|mi- ni Do- mi-|ni.|Qui- a|il- lic se-|de- runt|
 G,3 G, G,G, | A,3 A, A,2 | D,3 D, D,D, | A,4 D,2- | D,2 (A,2 A,,2) | D,6 | z4 ^G,2 | A,4 A,2 | %54
w: se- des in ju-|di- ci- o,|se- des su- per|do- mum|* Da\- *|vid.|Ro-|ga- te|
 E,4 E,2 | E,3 E, E,E, | E,3 E, E,2 | E,2 E,2 E,2 | E,3 E, E,2 | A,4 A,2 | D,2 E,2 E,2 | A,,6 | %62
w: quae ad|pa- cem sunt Je-|ru- sa- lem:|et a- bun-|dan- ti- a|di- li-|gen- ti- bus|te.|
 z6 | F,4 F,2 | F,2 F,2 F,2 | F,2 F,2 F,F, | F,4 F,2 | G,2 C,4 | F,6 | F,2 F,2 F,2 | F,F, F,2 F,2 | %71
w: |Fi- at|pax in vir-|tu- te, in vir-|tu- te|tu- *|a:|et a- bun-|dan- ti- a in|
 F,4 C,2 | G,2 G,,4 | C,6 | F,3 F, F,F, | F,2 F,2 F,2 | G,2 G,2 G,2 | A,4 A,2 | D,2 D,2 D,2 | %79
w: tur- ri-|bus tu-|is.|Pro- pter fra- tres|me- os et|pro- xi- mos|me- os,|lo- que- bar|
 A,2 A,2 D,2- | D,2 A,2 A,,2 | D,6 | ^G,3 G, G,G, | A,3 A, A,2 | E,2 E,E, E,E, | E,6 | E,6 | %87
w: pa- cem, pa\-|* cem de|te:|Pro- pter do- mum|Do- mi- ni,|Do- mi- ni De- i|no-|stri,|
 E,2 E,2 E,2 | E,4 A,2- | A,2 E,4 | A,,6 | z6 | F,3 F, F,2 | F,4 F,2 | F,3 F, F,2 | F,2 F,2 F,2 | %96
w: quae- si- vi|bo- na|* ti-|bi.||Glo- ri- a|Pa- tri,|glo- ri- a,|glo- ri- a|
 G,2 C,3 C, | F,6 | F,4 F,2 | F,4 C,2 | G,2 G,,4 | C,6 | z2 F,2 F,2 | F,4 F,2 | F,4 F,2 | %105
w: et Fi- li-|o,|et Spi-|ri- tu-|i San-|cto.|Si- cut|e- rat|in prin-|
 A,3 A, A,2 | D,2 D,2 D,2 | A,2 A,2 D,2 | A,2 A,2 A,,2 | D,6 | z2 ^G,2 G,2 | A,A, A,2 A,2 | %112
w: ci- pi- o,|et nunc, et|sem- per, et|in sae- cu-|la,|et in|sae- cu- la, in|
 E,2 E,E, E,E, | E,2 E,2 E,2 | E,2 E,E, E,E, | E,4 A,2 | D,2 E,4 | A,,6 | z2 F,2 F,2 | %119
w: sae- cu- la sae- cu-|lo- rum, in|sae- cu- la sae- cu-|lo- rum,|* a-|men,|et in|
 F,2 F,F, F,F, | F,2 F,2 F,2 | F,2 F,F, F,F, | F,4 F,2- | F,2 C,4 | F,6 | z2 F,2 F,2 | %126
w: sae- cu- la sae- cu-|lo- rum, in|sae- cu- la sae- cu-|lo- rum|* a-|men,|et in|
 F,2 F,F, F,F, | F,2 F,2 F,2 | F,2 F,F, F,F, | F,4 F,2- | F,2 C,4 | F,6 | C,4 F,2 | %133
w: sae- cu- la sae- cu-|lo- rum, in|sae- cu- la sae- cu-|lo- rum|* a-|men,|a- men,|
 C,4 !fermata!F,2 |] %134
w: a- men.|

